X: 1
T: The Sound of Silence
M: C
K: Ebm clef=treble -8
L: 1/8
"Eb2"z2EE GG BB|"Db"A8|zDD FF AA|"Ebm"G8|
zG GG BB dd|"Cb"e4"Gb"d4|z2GG BB dd|"Cb"e4"Gb"d4|
z2GG "Cb"ee3-|-e2ef "Cbsus"gg3|"Cb"fe3"Gb"d4-|d2ed"Ebm"B4-|
B4"Gb"zG GG|"Db"d6zF|"Ebm"GE3-"Eb2"E4:|
